tools/download-figma-icons/icons/solid/enercity-portal.svg

<svg width="24" height="24" viewBox="0 0 24 24" fill="none" xmlns="http://www.w3.org/2000/svg">
<path fill-rule="evenodd" clip-rule="evenodd" d="M20.9925 21C21.825 21 22.5 20.34 22.5 19.53V7.5H1.5V19.155C1.5 19.9875 2.1975 21 3.0075 21H20.9925ZM3.75 4.5C3.75 4.0875 3.4125 3.75 3 3.75C2.5875 3.75 2.25 4.0875 2.25 4.5C2.25 4.9125 2.5875 5.25 3 5.25C3.4125 5.25 3.75 4.9125 3.75 4.5ZM6 4.5C6 4.0875 5.6625 3.75 5.25 3.75C4.8375 3.75 4.5 4.0875 4.5 4.5C4.5 4.9125 4.8375 5.25 5.25 5.25C5.6625 5.25 6 4.9125 6 4.5ZM8.25 4.5C8.25 4.0875 7.9125 3.75 7.5 3.75C7.0875 3.75 6.75 4.0875 6.75 4.5C6.75 4.9125 7.0875 5.25 7.5 5.25C7.9125 5.25 8.25 4.9125 8.25 4.5ZM3.0075 1.5H20.9925C22.65 1.5 24 2.835 24 4.47V19.53C24 21.165 22.65 22.5 20.9925 22.5H3.0075C1.2825 22.5 0 20.7375 0 19.155V4.47C0 2.835 1.35 1.5 3.0075 1.5ZM14.6195 13.3745C14.5183 11.8993 13.5995 11.0998 12.1955 11.0998C10.8178 11.0998 9.82252 12.05 9.56677 13.3745H14.6195ZM12.128 19.4998C9.17901 19.4998 6.94701 17.2918 6.94701 14.2498C6.94701 11.2325 9.17901 8.9998 12.1025 8.9998C15.437 8.9998 17.0533 11.3795 17.0533 14.2498C17.0533 14.4463 17.027 14.9121 17.0015 15.182H9.48651C9.69126 16.409 10.8455 17.3653 12.128 17.3653C13.2823 17.3653 14.5393 16.7766 15.104 15.8443L16.925 17.2678C15.719 18.7146 14.3345 19.4998 12.128 19.4998Z" fill="black"/>
</svg>

<svg width="24" height="24" viewBox="0 0 24 24" fill="none" xmlns="http://www.w3.org/2000/svg"><path fill-rule="evenodd" clip-rule="evenodd" d="M20.992 21c.833 0 1.508-.66 1.508-1.47V7.5h-21v11.655c0 .832.697 1.845 1.507 1.845h17.985ZM3.75 4.5A.752.752 0 0 0 3 3.75a.752.752 0 0 0-.75.75c0 .412.337.75.75.75s.75-.338.75-.75ZM6 4.5a.752.752 0 0 0-.75-.75.752.752 0 0 0-.75.75c0 .412.338.75.75.75S6 4.912 6 4.5Zm2.25 0a.752.752 0 0 0-.75-.75.752.752 0 0 0-.75.75c0 .412.338.75.75.75s.75-.338.75-.75Zm-5.242-3h17.985C22.65 1.5 24 2.835 24 4.47v15.06c0 1.635-1.35 2.97-3.008 2.97H3.008C1.283 22.5 0 20.738 0 19.155V4.47C0 2.835 1.35 1.5 3.007 1.5Zm11.611 11.874c-.1-1.475-1.02-2.274-2.424-2.274-1.377 0-2.372.95-2.628 2.274h5.053Zm-2.49 6.126c-2.949 0-5.181-2.208-5.181-5.25C6.948 11.232 9.18 9 12.103 9c3.335 0 4.951 2.38 4.951 5.25 0 .196-.026.662-.052.932H9.488c.204 1.227 1.358 2.183 2.641 2.183 1.154 0 2.411-.588 2.976-1.52l1.821 1.423c-1.206 1.447-2.59 2.232-4.797 2.232Z" fill="currentColor"/></svg>
